X: 11433
Q: "Not too fast."
M: 6/8
L: 1/8
K: D
d2c B2c | d2e f2e | d2c B2d | c3 F2c |\
d2c B2c | d2e f2g | a2b a2f | e3 d2 H|]
c |\
d2e f2f | f2g f2e | d2e fgf | e3 A2c |\
d2e f2f | f2e f2g | a2b a2f | e3 "^D.C."d2 |]


